X:1
T:Title
%%score { ( 1 3 ) | ( 2 4 ) }
L:1/8
M:3/4
K:Eb
V:1 treble nm="Grand Piano"
V:3 treble 
V:2 bass 
V:4 bass 
V:1
 z2 z2[Q:1/4=100] B2 | B3 G [Ac][GB] | [GB]4 [EG]2 | [FA]3 [DF] [DB][FA] |[M:3/8] [EG]3 | %5
 [GB][Ac][Ad] |[M:3/4] [Ge]3 G AB | c3 [CF] [FA][Ec] | B2 G2 [A,DF]2 |[M:2/4] [G,E]4 | %10
[M:4/4][Q:1/4=108] [EGB]2 [GB]2- [EG-B-]2 [EGB]2 | z2 B6 | [EAc][EGB] [EGB]4 [FA]2 | %13
[M:3/4] z2 [FA]4- |[M:1/4] [FA]2 | FG |[M:4/4] A6 z2 | A6 z2 | [FA]4 [EG]2 [DF]2 |[M:3/4] [EG]6 | %20
[M:1/4] [GB][GB] |[M:4/4] [Ge]2 [Ge][Ge] [Ge]2 [GB][GB] | c2 cc [GB]2 [FA][EG] | %23
 [DF]2 [DF][EG] [FA]2 [EG][DF] |[M:3/4] [EG]6 |[M:1/4] [GB][GB] | %26
[M:4/4] [Ge]2 [Ge][Ge] [Ge]2 [GB][GB] | c2 cc [GB]2 [FA][EG] | [DF]2 [DF][EG] [FA]2 [EG][DF] | %29
[M:7/8] E-E-E- E- E3 |] %30
V:2
 z2 z2 [E,G,E]2 | [E,G,E]3 [E,B,E] [E,E][E,E] | [E,E]4 [E,B,]2 | [B,,B,]3 [B,,B,] [B,,F,][B,,B,] | %4
[M:3/8] [E,B,]3 | [E,E][A,E][F,B,] |[M:3/4] [E,B,]3 [E,B,E] [F,B,D][G,B,E] | %7
 [A,E]3 [A,,A,] [A,,A,][A,,A,] | G,2 B,2 B,,2 |[M:2/4] E,4 |[M:4/4] E,2 E,2 E,2 E,2 | %11
 z2 G6[K:bass] | E,E, B,,4 [B,,B,]2 |[M:3/4] [B,,B,]2 [B,,B,]2 B,,B,, |[M:1/4] B,,2 | DE | %16
[M:4/4] F6[K:bass][K:treble] z2 | F6[K:bass] z2 | [B,,B,]4 [B,,B,]2 [B,,B,]2 | %19
[M:3/4] [E,B,]2 E,E, E,2 |[M:1/4] [E,E][E,E] |[M:4/4] [E,B,]2 [E,B,][E,B,] [E,B,]2 [E,E][E,E] | %22
 [A,EA]2 [A,EA][A,EA][K:bass] [E,E]2 [E,B,]2 | [B,,B,]2 [B,,B,][B,,B,] [B,,B,]2 [B,,B,][B,,B,] | %24
[M:3/4] [E,B,]2 E,E, E,2 |[M:1/4] [E,E][E,E] |[M:4/4] [E,B,]2 [E,B,][E,B,] [E,B,]2 [E,E][E,E] | %27
 [A,EA]2 [A,EA][A,EA][K:bass] [E,E]2 [E,B,]2 | [B,,B,]2 [B,,B,][B,,B,] [B,,B,]2 [B,,B,][B,,B,] | %29
[M:7/8] G,2 z z z z2 |] %30
V:3
 x6 | x6 | x6 | x6 |[M:3/8] x3 | x3 |[M:3/4] x6 | x6 | E4 z2 |[M:2/4] x4 |[M:4/4] z2 E2 z4 | %11
 GA z2 EE E2 | x8 |[M:3/4] [EG]2 z2 B,B, |[M:1/4] B,2 | x2 |[M:4/4] z2 B,2 B,2 FG | %17
 z2 B,B, B,2 [Ac][GB] | x8 |[M:3/4] z2 B,B, B,2 |[M:1/4] x2 |[M:4/4] x8 | x8 | x8 | %24
[M:3/4] z2 B,B, B,2 |[M:1/4] x2 |[M:4/4] x8 | x8 | x8 |[M:7/8] z2 B, C B,3 |] %30
V:4
 x6 | x6 | x6 | x6 |[M:3/8] x3 | x3 |[M:3/4] x6 | x6 | B,,4 z2 |[M:2/4] x4 |[M:4/4] x8 | %11
 EF z2[K:bass] E,E, E,2 | x8 |[M:3/4] x6 |[M:1/4] x2 | x2 | %16
[M:4/4] z2[K:bass] B,,2 B,,2[K:treble] DE | z2[K:bass] B,,B,, B,,2 [B,,B,][B,,B,] | x8 | %19
[M:3/4] x6 |[M:1/4] x2 |[M:4/4] x8 | x4[K:bass] x4 | x8 |[M:3/4] x6 |[M:1/4] x2 |[M:4/4] x8 | %27
 x4[K:bass] x4 | x8 |[M:7/8] E,2- [E,-G,] [E,-A,] [E,G,]3 |] %30

